src/OnboardingSPA/static/icons/forward.svg

<svg fill="none" height="14" viewBox="0 0 14 14" width="14" xmlns="http://www.w3.org/2000/svg"><path d="m0 7.875h10.6488l-4.8913 4.8913 1.2425 1.2337 7-7-7-7-1.23375 1.23375 4.88255 4.89125h-10.6488z" fill="#6d6d6d" opacity=".2"/></svg>

<svg width="14" height="14" viewBox="0 0 14 14" fill="none" xmlns="http://www.w3.org/2000/svg">
<path opacity="0.2" d="M0 7.875L10.6488 7.875L5.7575 12.7663L7 14L14 7L7 0L5.76625 1.23375L10.6488 6.125L0 6.125L0 7.875Z" fill="#6D6D6D"/>
</svg>
